src/images/icons/execution.svg

<svg width="38" height="38" viewBox="0 0 38 38" fill="none" xmlns="http://www.w3.org/2000/svg">
<g clip-path="url(#clip0_6006_806)">
<path d="M18.9998 29.0196C19.6151 29.0196 20.1131 28.5216 20.1131 27.9063V26.7405C22.1287 26.6362 24.0965 26.2491 25.9911 25.5843L30.2315 32.538C30.989 33.7638 32.4135 34.3234 33.7535 34.0402L35.9385 37.4705C36.2574 37.989 36.9409 38.1592 37.4704 37.8347C37.9933 37.5128 38.1564 36.8268 37.8346 36.3028L35.6496 32.8723C36.5161 31.8029 36.6638 30.2091 35.9024 28.9716L31.8567 22.3937C32.8974 21.5937 33.8873 20.7243 34.7663 19.7424C35.1761 19.2847 35.137 18.5813 34.6793 18.1703C34.2238 17.7626 33.5182 17.7996 33.1072 18.2573C32.3717 19.0784 31.547 19.808 30.6846 20.488L26.1681 13.1445C25.2434 15.3086 23.3547 16.9425 21.0552 17.5764L24.7949 23.6434C23.2755 24.1295 21.7018 24.415 20.1132 24.507V23.4531C20.1132 22.8378 19.6152 22.3399 18.9999 22.3399C18.3845 22.3399 17.8866 22.8378 17.8866 23.4531V24.5072C16.2978 24.4152 14.7241 24.1295 13.2046 23.6434L16.9445 17.5767C14.6449 16.9427 12.7564 15.3088 11.8315 13.1446L7.31494 20.4879C6.45267 19.808 5.62788 19.0786 4.89252 18.2575C4.48372 17.7987 3.77708 17.7618 3.32042 18.1706C2.86271 18.5815 2.8236 19.2849 3.23343 19.7427C4.1124 20.7244 5.10204 21.5936 6.14273 22.3936L2.09729 28.9707C1.33596 30.2089 1.48373 31.8026 2.3503 32.8721L0.165081 36.3029C-0.156732 36.827 0.00632668 37.513 0.529272 37.8348C1.0586 38.1594 1.7423 37.9893 2.06115 37.4706L4.24585 34.0407C5.57659 34.3218 7.00374 33.7753 7.76805 32.5369L12.0082 25.5842C13.903 26.2491 15.8707 26.6362 17.8865 26.7405V27.9063C17.8865 28.5216 18.3844 29.0196 18.9998 29.0196Z" fill="#C4B0A8"/>
<path d="M13.4336 10.0938C13.4336 13.1629 15.9308 15.6602 19 15.6602C22.0692 15.6602 24.5664 13.1629 24.5664 10.0938C24.5664 7.40584 22.6509 5.08302 20.1133 4.56579V2.22656H21.2266C21.8419 2.22656 22.3398 1.72863 22.3398 1.11328C22.3398 0.497934 21.8419 0 21.2266 0H16.7734C16.1581 0 15.6602 0.497934 15.6602 1.11328C15.6602 1.72863 16.1581 2.22656 16.7734 2.22656H17.8867V4.56579C15.3491 5.08302 13.4336 7.40584 13.4336 10.0938ZM19 11.207C18.3852 11.207 17.8867 10.7086 17.8867 10.0938C17.8867 9.47877 18.3852 8.98047 19 8.98047C19.6148 8.98047 20.1133 9.47877 20.1133 10.0938C20.1133 10.7086 19.6148 11.207 19 11.207Z" fill="#C4B0A8"/>
</g>
<defs>
<clipPath id="clip0_6006_806">
<rect width="38" height="38" fill="white"/>
</clipPath>
</defs>
</svg>

<svg width="38" height="38" fill="none" xmlns="http://www.w3.org/2000/svg"><g clip-path="url(#clip0_6006_806)" fill="#C4B0A8"><path d="M19 29.02c.615 0 1.113-.498 1.113-1.114v-1.165a20.973 20.973 0 005.878-1.157l4.24 6.954a3.326 3.326 0 003.523 1.502l2.184 3.43a1.114 1.114 0 001.897-1.167l-2.185-3.43c.866-1.07 1.014-2.664.252-3.901l-4.045-6.578c1.04-.8 2.03-1.67 2.91-2.652a1.114 1.114 0 00-1.66-1.485c-.735.821-1.56 1.551-2.422 2.231l-4.517-7.343c-.925 2.164-2.813 3.797-5.113 4.431l3.74 6.067c-1.52.486-3.093.772-4.682.864v-1.054a1.113 1.113 0 10-2.226 0v1.054a18.958 18.958 0 01-4.682-.864l3.74-6.066c-2.3-.634-4.189-2.268-5.114-4.432l-4.516 7.343c-.862-.68-1.687-1.41-2.422-2.23a1.114 1.114 0 00-1.66 1.485c.88.981 1.869 1.85 2.91 2.65l-4.046 6.578c-.761 1.238-.613 2.832.253 3.901l-2.185 3.43a1.114 1.114 0 001.896 1.169l2.185-3.43a3.321 3.321 0 003.522-1.504l4.24-6.953a20.972 20.972 0 005.879 1.157v1.165c0 .616.497 1.114 1.113 1.114z"/><path d="M13.434 10.094A5.573 5.573 0 0019 15.66a5.573 5.573 0 005.566-5.566c0-2.688-1.915-5.011-4.453-5.528v-2.34h1.114a1.113 1.113 0 100-2.226h-4.454a1.113 1.113 0 100 2.227h1.114v2.339c-2.538.517-4.453 2.84-4.453 5.528zM19 11.207a1.113 1.113 0 110-2.227 1.113 1.113 0 010 2.227z"/></g><defs><clipPath id="clip0_6006_806"><path fill="#fff" d="M0 0h38v38H0z"/></clipPath></defs></svg>
